X:1
T:Queen of Evening
T:Queen of Evening
T:Isaac Nathan
T:Maurice Harcourt 
T:by IMSLP - Public Domain
T:by IMSLP - Public Domain
T:by IMSLP - Public Domain
T:by IMSLP - Public Domain
C:Isaac Nathan
Z:Maurice Harcourt
Z:by IMSLP - Public Domain
%%score ( 1 2 ) { ( 3 4 ) | ( 5 6 ) }
L:1/8
Q:1/4=60
M:2/4
K:G
V:1 treble nm="Voice"
V:2 treble 
V:3 treble nm="Piano"
V:4 treble 
V:5 bass 
V:6 bass 
V:1
 z4 | z4 | z4 | z4 | z4 | z4 | z4 | z4 || D B A G | !wedge!A ^G A !>!d | D B B/A/ G | A B G2 | %12
w: ||||||||Star of night! that|bright\- ly shin\- ing,|In the broad * ce\-|les\- tial plain,|
 D B B/A/ G | !wedge!A !wedge!^G A !>!d | G g g/e/ c/A/ | D B/A/ G2 | A ^G A B/c/4d/4 | c A B d | %18
w: With a glo- * ry|ne'er de\- clin\- ing,|Wel\- come to * my *|sight a- * gain!|For so pure   are * *|all thy beam\- ings,|
 ^c A d f | %19
w: And thy orb of|
 e ^c !fermata!d{!fermata!d!fermata!=c!fermata!A!fermata!F!fermata!D} x/{!fermata!_E} !fermata!D/ | %20
w: light so fair,- That|
 D B A G | !wedge!A !wedge!^G A !>!d | D B B/A/ G | A B/A/ G2 | A B d/c/ E/A/ | G2 G2 | z4 | z4 | %28
w: child\- hood, and its|gold\- en dream\- ings,|Seem for e- * ver|cen\- tred * there!|Seem for e- * ver *|cen\- there!|||
 z4 | z4 || B e e ^d | f A A G | F B B ^A | B d F2 | d g ^c f | B e ^A ^c | d f B e | %37
w: ||Queen of Eve\- ning!|thou art throw\- ing|Lus\- trous beau\- ty,|where de\- cay|Those who, while with|young life's glow\- ing,|lov'd to wan\- der|
 d^c/8d/8c/8d/8e/8d/8c/8B/8"^3""^3"({^AB)} c B2 | D B A G | A ^G A d | D B B/A/ G | A B G2 | %42
w: |Queen of Eve\- ning!|thou art throw\- ing|Lus\- trous beau\- * ty,|where de\- cay|
 D B A G | A ^G A d | G g f/e/ c/A/ | D B/A/ G2 | A ^G A B/c/4d/4 | c A B d | ^c A d f | %49
w: Those who, while with|young life's glow\- ing,|lov'd to wan\- * der *|'neath thy * ray.|Thus will Vir\- tue * *|light be cast\- ing|O'er the memo\- ry|
 e ^c !fermata!d2 | D B A G | A ^G A d | D B B/A/ G | A B G2 | A B d/c/ E/A/ | G F G g | %56
w: of the dead,|And a ha\- lo,|bright as last\- ing,|Round their saint- * ed|names be shed,|Round their saint\- * ed *|names be shed, their|
 (8:4:8a/g/f/e/ d/c/B/A/ D B/A/ | G4 | z4 | z4 | z4 | z4!fine! |] %62
w: saint- * * * * * ed * names be *|shed.|||||
V:2
 x4 | x4 | x4 | x4 | x4 | x4 | x4 | x4 || x4 | x4 | x4 | x4 | x4 | x4 | x7/4 a/4g/4f/4e/4 x5/4 | %15
w: |||||||||||||||
 x4 | x4 | x4 | x4 | x4 | x4 | x4 | x4 | x4 | x4 | x F/G/4A/4 x2 | x4 | x4 | x4 | x4 || x4 | x4 | %32
w: ||||||||||* tred *|||||||
 x4 | x4 | x4 | x4 | x4 | d x ^c/ x/ x x | x4 | x4 | x4 | x4 | x4 | x4 | %44
w: ||||||||||||
 x7/4 a/4f/4f/4e/4 d/4c/4B/4A/4 x/4 | x4 | x4 | x4 | x4 | x ^c/d/4e/4 x2 | x4 | x4 | x4 | x4 | x4 | %55
w: |||||||||||
 x4 | x4 | x4 | x4 | x4 | x4 | x4 |] %62
w: |||||||
V:3
 db b/a/g | a[e^g]3/4a/8a/8 ab | c'b a=g | fe [Fd]/E/!>!!fermata![A,C_E]/>D/ | [B,D] b b/a/g | %5
 a[e^g] ab | c'b ag | gf/g/4a/4 g2 || z B AG | !wedge!AE A2 |!p! z B AG | [CF]2 [B,G]2 | z B AG | %13
 !wedge![CFA] z!f! !wedge![CF][A,CF] | z [G,DG]z[G,EG] | [G,B,D][A,CF] [B,G]2 | %16
!p! [FA][^E^G] [FA][GB] | [Ac][FA] [GB][Bd] | ^c2 df | [Be][G^c] !fermata![Fd] z | DB AG | AE A2 | %22
 Dd AG | [EA][CF] [B,G]2 | [CEA][D^GB] [EAc][CEA] | [B,DG][CF] [B,G]>[B,D] | %26
!ff! [B,D] b!8va(! b'/a'/g' | a'^g' a'b' | c''b' a'g' | f'f'/g'/4a'/4!8va)! g2 || G2 A2- | %31
 AF z [B,G] | F2 z [EG] | z F- Fc | F G2 F- | F E2 ^A | z [DB] z [^CEB] | [DB]x[^CE^A] [DFB]2 | %38
 DB AG | AE A2 | DB AG | [CF]2 [B,G]2 | DB AG | [CFA]2 [A,DF]2 | z [G,DG]z[G,EG] | %45
 [G,B,D][A,CF] [B,G]2 | [FA][^E^G] [FA][GB] | [Ac][FA] [GB][Bd] | ^c2 df | %49
 [Be][G^c] !fermata![Fd] z | D!p!B AG | [CFA] z [CF]!>![A,CF] | DB AG | [FA][CF] [B,G]2 | %54
 [CEA][D^GB] [EAc][CEA] | [B,DG][A,DF] [DG]2 | [EG]2 [B,DG][CF] | [B,G]2- [B,G]>[B,D] | %58
 [B,D] bb/a/g | a^g ab | d'/c'/e/a/ gf/g/ | g4 |] %62
V:4
 d2 [cf]B | cd [ce][de] | [ce][d^g] c[Ae] | d/A/^c/A/ x2 | x d[cf]d | [ce]d [ce][de] | [ce]d c_B | %7
 [=Bd][Ac] [GB]2 || [B,D]2 CB, | C2- C/A,/D/C/ | [B,D]2 CB, | x4 | [B,D]2 CB, | x4 | x4 | x4 | x4 | %17
 x4 | A4 | x4 | B,2 CB, | C2- C/D/C/D/- | B,2 [CE]D | z4 | x4 | x4 | x d!8va(! [c'f']b | %27
 [c'e'][d'e'] [c'e'][d'e'] | [c'e']d' c'[_be'] | [=bd'][ac']!8va)! B2 || B,4- | B,2 x2 | ^A,B, x2 | %33
 x D^CE | D2 [^CE]C | ^DB, ^CE | x4 | x5 | B,2 CB, | C2- C/A,/D/C/ | B,2 CB, | x4 | x4 | x4 | x4 | %45
 x4 | x4 | x4 | A4 | x4 | B,2 CB, | x4 | B,2 CD | x4 | x4 | x2 G,B, | A,C z2 | x4 | x d [cf]B | %59
 [ce][de] [ce][de] | ec Bc | B4 |] %62
V:5
 [G,B,]/D/[G,B,]/D/ [B,,A,]/C/[E,G,]/B,/ | [C,E,]/A,/[B,,D,]/E,/ [A,,C,]/E,/[^G,,B,,]/E,/ | %2
 A,,/E,/B,,/E,/ C,/E,/^C,/E,/ | [D,,D,]3 !>!!fermata![F,,F,] | [G,,G,][G,,G,] [A,,A,][B,,B,] | %5
 C,/C/B,,/B,/ A,,/A,/^G,/G/ | A,/A/B,/^G/ C/A/^C/C,/ | D,/D/-[D,D] [G,D]2 || G,,2 G,2- | G,2 F,2 | %10
 [G,,G,]4 | [D,,D,]2 G,,2- | [G,,G,]4 | [D,,D,] z [D,,D,]!>![D,,D,] | B,,2 C,2 | D,D,, G,,2 | %16
 [D,,D,] z [D,,D,] z | [D,,D,] z G,,2 | G,2 F,D, | G,A,- !fermata![D,A,] z | G,,2 G,2- | G,2 F,2 | %22
 [G,,G,]2 C,B,, | C,D, [E,,E,][D,,D,] | [C,,C,][B,,,B,,] [A,,,A,,][C,,C,] | [D,,D,]D,, G,,2 | %26
 [G,,G,]2 [D,,D,][E,,E,] | [C,,E,][B,,,B,,] [A,,,A,,][^G,,,^G,,] | %28
 [A,,,A,,][B,,,B,,] [C,,C,][^C,,^C,] | [D,,D,-][D,,D,] G,,2 || E,2 F,2 | ^D,2 E,2- | E,=D, ^C,2 | %33
 D,B,, ^A,,2 | B,, B,2 A,- | A,G, F,2 | [B,,B,]2 [G,,G,]2 | [F,,F,]3 B,,2 | G,,2 G,2 | G,2 F,2 | %40
 [G,,G,]4 | [D,,D,]2 G,,2- | [G,,G,]4 | [D,,D,]2!f! [C,,C,]2 | [B,,,B,,]z[C,,C,] z | D,D,, G,,2 | %46
 [D,,D,] z [D,,D,] z | [D,,D,] z G,,2 | G,2 F,D, | G,A,- !fermata![D,A,] z | [G,,G,]4 | %51
 [D,,D,] z [D,,D,]!f![D,,D,] | [G,,G,]2 C,B,, | C,D, [E,,E,][D,,D,] | C,B,, A,,C, | %55
 D,D,/C,/ B,,G,, | C,A,, D,-[D,,D,] | [G,,-D,]4 | [G,,G,]2 [D,D][E,E] | %59
 [C,C][B,,B,] [A,,A,][^G,,^G,] | [A,,A,][C,C] [D,D][D,,D,] | [G,,G,]4 |] %62
V:6
 x4 | x4 | x4 | x4 | x4 | x4 | x4 | x4 || G,,4 | x4 | x4 | x4 | x4 | x4 | x4 | x4 | x4 | x4 | x4 | %19
 x4 | G,,4 | G,,2 F,,2 | x4 | x4 | x4 | x4 | x4 | x4 | x4 | x4 || x4 | x4 | x4 | x4 | x4 | x4 | %36
 x4 | x5 | G,,4- | G,,2 F,,2 | x4 | x4 | x4 | x4 | x4 | x4 | x4 | x4 | x4 | x4 | x4 | x4 | x4 | %53
 x4 | x4 | x4 | x4 | x4 | x4 | x4 | x4 | x4 |] %62

